X: 19836
T: Jerry's Beaver Hat
R: jig
M: 6/8
K: Dmajor
|:DFA dAd|fed BAF|AFA dAF|EDE GFE|
DFA dAd|fed BAF|AFA dAF|DED D3:|
|:dfa afd|gfg fef|dfa afd|ace eca|
dfa afd|gfg fef|B/c/dB AFA|DED D3:|

